X: 4044
T: Blarney Pilgrim, The
R: jig
M: 6/8
K: Dmixolydian
|:DED DEG|A3 ABc|BAG AGE|G2G GFG|
DED DEG|A3 ABc|BAG AGE|1 GED D3:|2 GED DBc||
|:ded dBG|AGA BGE|ded dBG|ABA GBd|
g2f edB|AGA BGA|B3 ABA|1 GAG GBc:|2 GAG GFG||
|:ADD BDD|AGA ABc|BAG AGE|G2G GFG|
ADD BDD|AGA ABc|BAG AGE|1 GED DFG:|2 GED D3||

